src/images/std-icons/std-sms.svg

<svg xmlns="http://www.w3.org/2000/svg" width="512" height="512" viewBox="0 0 512 512">
  <title>sms</title>
  <path fill="#000" fill-rule="nonzero" d="M392.533333,128 L119.466667,128 C101.232183,127.484251 85.9938517,141.770186 85.3333333,160 L85.3333333,411.85408 C85.3333333,417.909692 88.981113,423.369036 94.5758229,425.686288 C100.170533,428.00354 106.610237,426.722326 110.891947,422.440107 L149.333333,384 L392.533333,384 C410.767817,384.515749 426.006148,370.229814 426.666667,352 L426.666667,160 C426.006148,141.770186 410.767817,127.484251 392.533333,128 Z M166.322987,298.610773 C152.851281,299.238347 139.676858,294.520068 129.66656,285.482667 L140.237013,269.45664 C147.260108,276.43998 156.760024,280.362356 166.664107,280.368 C173.99488,280.368 178.427093,277.469653 178.427093,273.549013 C178.427093,269.628373 172.119893,267.922773 164.617173,266.21696 C150.808533,263.489067 132.054613,259.739093 132.054613,239.620693 C132.054613,225.810773 143.817813,213.365547 164.958293,213.365547 C177.332263,212.920032 189.447678,216.978843 199.056,224.788693 L187.293013,239.961813 C180.473281,234.485868 171.999989,231.481042 163.253973,231.437013 C156.94528,231.437013 154.388053,233.994453 154.388053,237.404587 C154.388053,240.81472 160.696533,242.86016 168.197973,244.564693 C182.007893,247.46304 200.42048,251.555627 200.42048,270.991787 C200.42048,288.04032 188.144427,298.610773 166.322987,298.610773 Z M303.225173,297.076907 L282.08384,297.076907 L282.08384,242.860587 L261.113173,297.076907 L251.736747,297.076907 L230.936747,243.54304 L230.936747,297.076907 L209.795413,297.076907 L209.795413,214.21824 L239.291733,214.21824 L256.34112,258.715733 L273.389227,214.21824 L303.225173,214.21824 L303.225173,297.076907 Z M348.234453,298.098987 C334.914047,298.544789 321.945802,293.77311 312.091093,284.8 L323.684907,269.456213 C330.655179,276.413493 340.091835,280.335267 349.940053,280.367573 C357.270827,280.367573 361.70304,277.469227 361.70304,273.548587 C361.70304,269.627947 355.566507,267.922347 347.893333,266.216533 C334.084693,263.48864 315.330773,259.738667 315.330773,239.620267 C315.330773,225.810347 327.09376,213.36512 348.234453,213.36512 C360.042836,213.189233 371.548308,217.104766 380.79808,224.447147 L369.20448,239.620267 C362.332816,234.120095 353.797833,231.115021 344.996053,231.096747 C338.858027,231.096747 336.3008,233.48352 336.3008,237.06304 C336.3008,240.64256 342.608,242.34816 349.940053,244.224427 C363.749973,247.121493 382.33344,251.043413 382.33344,270.479573 C382.33344,287.528747 370.057387,298.098987 348.234453,298.098987 Z"/>
</svg>

<svg xmlns="http://www.w3.org/2000/svg" viewBox="0 0 512 512">
  <title>
    sms
  </title>
  <path d="M392.53 128H119.47a33.22 33.22 0 0 0-34.14 32v251.85a14.97 14.97 0 0 0 25.56 10.59L149.33 384h243.2a33.22 33.22 0 0 0 34.14-32V160a33.22 33.22 0 0 0-34.14-32zm-226.2 170.61a51.15 51.15 0 0 1-36.66-13.13l10.57-16.02a37.51 37.51 0 0 0 26.42 10.9c7.33 0 11.77-2.89 11.77-6.81 0-3.92-6.31-5.63-13.81-7.33-13.81-2.73-32.57-6.48-32.57-26.6 0-13.8 11.77-26.25 32.9-26.25a51.14 51.14 0 0 1 34.1 11.42l-11.76 15.17a38.7 38.7 0 0 0-24.04-8.52c-6.3 0-8.86 2.55-8.86 5.96s6.3 5.46 13.8 7.16c13.82 2.9 32.23 7 32.23 26.43 0 17.05-12.28 27.62-34.1 27.62zm136.9-1.53h-21.15v-54.22l-20.97 54.22h-9.37l-20.8-53.54v53.54H209.8v-82.86h29.5l17.04 44.5 17.05-44.5h29.84v82.86zm45 1.02a51.14 51.14 0 0 1-36.14-13.3l11.6-15.34a37.34 37.34 0 0 0 26.25 10.9c7.33 0 11.76-2.9 11.76-6.81 0-3.92-6.13-5.63-13.8-7.33-13.82-2.73-32.57-6.48-32.57-26.6 0-13.81 11.76-26.25 32.9-26.25a51.15 51.15 0 0 1 32.57 11.08l-11.6 15.17a38.87 38.87 0 0 0-24.2-8.52c-6.14 0-8.7 2.38-8.7 5.96s6.3 5.29 13.64 7.16c13.81 2.9 32.4 6.82 32.4 26.26 0 17.05-12.28 27.62-34.1 27.62z"/>
</svg>
